svg/u267b.svg

<svg viewBox="0 0 128 128" xmlns="http://www.w3.org/2000/svg">
  <path d="M27.3,36.56c0,0,19.47,10.45,20.59,10.95c1.12,0.51,2.64-0.2,3.35-1.83 c0.71-1.62,11.16-21.1,11.66-21.91s0.91-2.33,2.74-1.52s4.16-5.27,4.16-5.27L51.13,6.03L41.9,7.25L26.59,34.94L27.3,36.56z" fill="#34700D"/>
  <path d="M26.38,84.33c0,0,27.18,0.3,28.81,0.3c1.62,0,3.14,0.41,3.35,2.54c0.2,2.13-0.2,26.37-0.2,26.37 l-10.45,0.1l-15.52-0.71l-8.32-3.45l-6.49-15.11L26.38,84.33z" fill="#34700D"/>
  <path d="M107.73,43.86c0,0-21.2,12.48-21.71,12.78s-1.12,1.32-0.2,2.94s11.06,20.08,11.87,21.5 c0.81,1.42,1.72,3.14,0.3,4.16c-1.42,1.01,2.13,4.67,2.13,4.67l10.04-1.12l6.8-4.36l5.07-8.42c0,0-0.91-9.94-1.12-10.24 c-0.2-0.3-9.43-18.97-9.43-18.97L107.73,43.86z" fill="#34700D"/>
  <path d="M75.45,37.56c0,0-10.57-16.32-13.97-20.17c-2.67-3.03-5.55-5.51-8.07-7.56 c-2.28-1.85-3.95-2.19-5.93-1.88c-3.12,0.49-4.94,1.99-6.69,4.97C35.52,21.87,27.3,36.56,27.3,36.56s-2.89-0.91-2.94-2.84 C24.3,31.88,36.12,11.81,37.34,9.68c1.22-2.13,3.25-4.87,8.82-5.17S80.95,4,82.57,4.31s5.38,1.83,8.82,7.1 c3.94,6.03,6.45,11.38,6.45,11.38s7.75-4.59,8.56-4.08c1.22,0.76-10.81,24.33-11.77,25.15c-0.6,0.52-27.69,2.23-28.3,0.71 C65.94,43.56,75.45,37.56,75.45,37.56z" fill="#7CB342"/>
  <path d="M107.73,43.86c0,0,1.43-1.27,2.57-0.92c1.14,0.36,11.67,22.88,12.72,25.08 c1.06,2.2,1.67,7.48-1.58,12.76c-3.26,5.28-18.92,28.87-20.07,30.28c-1.14,1.41-1.76,2.64-4.93,2.64c-3.17,0-15.14-0.18-15.14-0.18 s-0.44,8.89-0.53,9.68s-1.41,1.32-2.29-0.26s-13.38-22.71-13.38-23.24c0-0.53,12.23-24.71,14-24.47c1.27,0.18,1.14,9.77,1.14,9.77 s27.55-0.53,30.28-0.7c2.73-0.18,5.37-1.23,6.78-3.34s4.58-7.13,2.2-12.32c-2.12-4.62-9.42-18.92-10.47-21.04 C108.36,46.27,107.39,44.87,107.73,43.86z" fill="#7CB342"/>
  <path d="M58.33,113.54c-0.39,1.53-1.59,1.57-3,1.66c-1.41,0.09-20.42,0-24.56-0.44 c-4.14-0.44-8.1-3.52-9.59-6.95c-1.5-3.43-7.57-14.17-11.79-23.06S4.2,73.31,3.93,71.28s2.02-7.13,4.31-10.83 c2.29-3.7,3.87-5.99,3.87-5.99s-8.29-5.46-8.45-6.51c-0.11-0.7,8.35-0.95,15.58-1.23c7.12-0.28,14.35-0.44,14.88,0.09 c0.53,0.53,4.31,8.36,6.51,12.85s6.69,12.76,6.6,13.55c-0.13,1.14-1.29,0.57-2.96-0.14c-1.67-0.7-7.86-3.91-7.86-3.91 s-6.95,11.88-9.68,17.43c-2.73,5.55-5.37,10.91-4.67,15.84c0.43,2.98,4.05,8.27,10.74,8.98s21.56,0.26,23.33,0.35 C57.89,111.86,58.69,112.15,58.33,113.54z" fill="#7CB342"/>
  <path d="M15.28,56.68c-1.17-0.48-3.45,1.79-6.6,8.29 c-2.52,5.19-2.63,7.1-1.34,9.44c1.11,2.01,3.18,5.33,4.09,5.35c1.14,0.02,1.06-6.68,2-11.55C14.75,61.35,16.86,57.34,15.28,56.68z" opacity="0.3" fill="#FFFFFF" enable-background="new "/>
  <path d="M56.04,6.5c-0.85,0.77,3.27,4.28,4.63,4.41 c1.85,0.18,22.53-0.09,24.03-0.09s2.38-1.06,0.97-2.46s-3.08-2.02-4.22-2.2c-0.59-0.09-5.98,0.05-12.06,0.09 C63.6,6.29,56.99,5.65,56.04,6.5z" opacity="0.3" fill="#FFFFFF" enable-background="new "/>
  <path d="M75.76,85.1c-1.25,0.51-6.87,12.94-6.95,13.91 c-0.09,0.97,3.35,6.24,4.58,6.06c1.23-0.18,2.63-6.27,3.16-11.75C76.9,89.65,77.21,84.51,75.76,85.1z" opacity="0.3" fill="#FFFFFF" enable-background="new "/>
</svg>

<svg viewBox="0 0 128 128" xmlns="http://www.w3.org/2000/svg">
  <defs/>
  <path d="M27.3,36.56 C27.3,36.56 46.77,47.01 47.89,47.51 C49.01,48.02 50.53,47.31 51.24,45.68 C51.95,44.06 62.4,24.58 62.9,23.77 C63.4,22.96 63.81,21.44 65.64,22.25 C67.47,23.06 69.8,16.98 69.8,16.98 L51.13,6.03 L41.9,7.25 L26.59,34.94 L27.3,36.56 Z" fill="#34700D"/>
  <path d="M26.38,84.33 C26.38,84.33 53.56,84.63 55.19,84.63 C56.81,84.63 58.33,85.04 58.54,87.17 C58.74,89.3 58.34,113.54 58.34,113.54 L47.89,113.64 L32.37,112.93 L24.05,109.48 L17.56,94.37 L26.38,84.33 Z" fill="#34700D"/>
  <path d="M107.73,43.86 C107.73,43.86 86.53,56.34 86.02,56.64 C85.51,56.94 84.9,57.96 85.82,59.58 C86.74,61.2 96.88,79.66 97.69,81.08 C98.5,82.5 99.41,84.22 97.99,85.24 C96.57,86.25 100.12,89.91 100.12,89.91 L110.16,88.79 L116.96,84.43 L122.03,76.01 C122.03,76.01 121.12,66.07 120.91,65.77 C120.71,65.47 111.48,46.8 111.48,46.8 L107.73,43.86 Z" fill="#34700D"/>
  <path d="M75.45,37.56 C75.45,37.56 64.88,21.24 61.48,17.39 C58.81,14.36 55.93,11.88 53.41,9.83 C51.13,7.98 49.46,7.64 47.48,7.95 C44.36,8.44 42.54,9.94 40.79,12.92 C35.52,21.87 27.3,36.56 27.3,36.56 C27.3,36.56 24.41,35.65 24.36,33.72 C24.3,31.88 36.12,11.81 37.34,9.68 C38.56,7.55 40.59,4.81 46.16,4.51 C51.73,4.21 80.95,4 82.57,4.31 C84.19,4.62 87.95,6.14 91.39,11.41 C95.33,17.44 97.84,22.79 97.84,22.79 C97.84,22.79 105.59,18.2 106.4,18.71 C107.62,19.47 95.59,43.04 94.63,43.86 C94.03,44.38 66.94,46.09 66.33,44.57 C65.94,43.56 75.45,37.56 75.45,37.56 Z" fill="#7CB342"/>
  <path d="M107.73,43.86 C107.73,43.86 109.16,42.59 110.3,42.94 C111.44,43.3 121.97,65.82 123.02,68.02 C124.08,70.22 124.69,75.5 121.44,80.78 C118.18,86.06 102.52,109.65 101.37,111.06 C100.23,112.47 99.61,113.7 96.44,113.7 C93.27,113.7 81.3,113.52 81.3,113.52 C81.3,113.52 80.86,122.41 80.77,123.2 C80.68,123.99 79.36,124.52 78.48,122.94 C77.6,121.36 65.1,100.23 65.1,99.7 C65.1,99.17 77.33,74.99 79.1,75.23 C80.37,75.41 80.24,85 80.24,85 C80.24,85 107.79,84.47 110.52,84.3 C113.25,84.12 115.89,83.07 117.3,80.96 C118.71,78.85 121.88,73.83 119.5,68.64 C117.38,64.02 110.08,49.72 109.03,47.6 C108.36,46.27 107.39,44.87 107.73,43.86 Z" fill="#7CB342"/>
  <path d="M58.33,113.54 C57.94,115.07 56.74,115.11 55.33,115.2 C53.92,115.29 34.91,115.2 30.77,114.76 C26.63,114.32 22.67,111.24 21.18,107.81 C19.68,104.38 13.61,93.64 9.39,84.75 C5.17,75.86 4.2,73.31 3.93,71.28 C3.66,69.25 5.95,64.15 8.24,60.45 C10.53,56.75 12.11,54.46 12.11,54.46 C12.11,54.46 3.82,49 3.66,47.95 C3.55,47.25 12.01,47 19.24,46.72 C26.36,46.44 33.59,46.28 34.12,46.81 C34.65,47.34 38.43,55.17 40.63,59.66 C42.83,64.15 47.32,72.42 47.23,73.21 C47.1,74.35 45.94,73.78 44.27,73.07 C42.6,72.37 36.41,69.16 36.41,69.16 C36.41,69.16 29.46,81.04 26.73,86.59 C24,92.14 21.36,97.5 22.06,102.43 C22.49,105.41 26.11,110.7 32.8,111.41 C39.49,112.12 54.36,111.67 56.13,111.76 C57.89,111.86 58.69,112.15 58.33,113.54 Z" fill="#7CB342"/>
  <path d="M15.28,56.68 C14.11,56.2 11.83,58.47 8.68,64.97 C6.16,70.16 6.05,72.07 7.34,74.41 C8.45,76.42 10.52,79.74 11.43,79.76 C12.57,79.78 12.49,73.08 13.43,68.21 C14.75,61.35 16.86,57.34 15.28,56.68 Z" fill="#FFFFFF" opacity="0.3"/>
  <path d="M56.04,6.5 C55.19,7.27 59.31,10.78 60.67,10.91 C62.52,11.09 83.2,10.82 84.7,10.82 C86.2,10.82 87.08,9.76 85.67,8.36 C84.26,6.96 82.59,6.34 81.45,6.16 C80.86,6.07 75.47,6.21 69.39,6.25 C63.6,6.29 56.99,5.65 56.04,6.5 Z" fill="#FFFFFF" opacity="0.3"/>
  <path d="M75.76,85.1 C74.51,85.61 68.89,98.04 68.81,99.01 C68.72,99.98 72.16,105.25 73.39,105.07 C74.62,104.89 76.02,98.8 76.55,93.32 C76.9,89.65 77.21,84.51 75.76,85.1 Z" fill="#FFFFFF" opacity="0.3"/>
</svg>
